app/assets/icons/twitter.svg

<?xml version="1.0" encoding="UTF-8" standalone="no"?>
<svg width="29px" height="24px" viewBox="0 0 29 24" version="1.1" xmlns="http://www.w3.org/2000/svg" xmlns:xlink="http://www.w3.org/1999/xlink">
    <!-- Generator: Sketch 39.1 (31720) - http://www.bohemiancoding.com/sketch -->
    <title>twitter</title>
    <desc>Created with Sketch.</desc>
    <defs></defs>
    <g id="Page-1" stroke="none" stroke-width="1" fill="none" fill-rule="evenodd">
        <path d="M18.1672042,0.283080024 C15.5479417,1.23640749 13.8925679,3.69387383 14.0811548,6.38437578 L14.1440171,7.42244346 L13.0963121,7.29533314 C9.28266603,6.80807688 5.95096423,5.15564261 3.12216081,2.38040044 L1.73919025,1.00337188 L1.38297056,2.02025451 C0.628622982,4.28705537 1.11056727,6.68096655 2.68212472,8.29103071 C3.5202887,9.18080301 3.3317018,9.30791333 1.88586895,8.77828697 C1.38297056,8.60880653 0.942934473,8.4816962 0.901026274,8.54525136 C0.754347578,8.69354675 1.25724596,10.6213867 1.65537385,11.3840487 C2.20018044,12.4433014 3.3107477,13.4813691 4.52608547,14.0957357 L5.55283634,14.582992 L4.33749857,14.604177 C3.16406901,14.604177 3.12216081,14.6253621 3.24788541,15.0702482 C3.66696739,16.4472768 5.32234125,17.9090455 7.16630199,18.5445972 L8.46545615,18.9894833 L7.33393479,19.6674051 C5.65760684,20.6419176 3.68792149,21.192729 1.71823615,21.2350991 C0.775301677,21.2562842 1.14394556e-15,21.3410244 1.15172883e-15,21.4045796 C1.17767304e-15,21.6164301 2.55640013,22.8027932 4.04414118,23.2688644 C8.50736435,24.645893 13.8087515,24.0527114 17.7900304,21.7011703 C20.6188338,20.027551 23.4476372,16.7014974 24.7677455,13.4813691 C25.4801849,11.7653797 26.1926242,8.62999158 26.1926242,7.1258527 C26.1926242,6.15134018 26.2554865,6.02422985 27.4289161,4.85905184 C28.1204014,4.18113009 28.7699785,3.43965318 28.8957031,3.22780263 C29.1052441,2.82528659 29.08429,2.82528659 28.0156309,3.18543252 C26.2345324,3.82098416 25.9830832,3.73624394 26.8631554,2.78291648 C27.5127325,2.10499473 28.2880342,0.876261556 28.2880342,0.516115626 C28.2880342,0.452560461 27.9737227,0.558485735 27.617503,0.749151228 C27.2403292,0.961001775 26.4021652,1.2787776 25.7735422,1.46944309 L24.6420209,1.82958902 L23.61527,1.13048221 C23.0495093,0.749151228 22.2532536,0.325450133 21.8341716,0.198339805 C20.7655125,-0.0982509612 19.1310927,-0.0558808518 18.1672042,0.283080024 L18.1672042,0.283080024 Z" id="twitter" fill="#FFF"></path>
    </g>
</svg>

<svg viewBox="0 0 29 24" xmlns="http://www.w3.org/2000/svg"><title>twitter</title><path d="M18.167.283c-2.62.953-4.274 3.41-4.086 6.101l.063 1.038-1.048-.127c-3.813-.487-7.145-2.14-9.974-4.915L1.74 1.003 1.383 2.02c-.754 2.267-.272 4.661 1.3 6.271.837.89.649 1.017-.797.487-.503-.17-.943-.296-.985-.233-.147.149.356 2.076.754 2.839.545 1.06 1.656 2.097 2.871 2.712l1.027.487-1.216.021c-1.173 0-1.215.021-1.09.466.42 1.377 2.075 2.839 3.92 3.475l1.298.444-1.131.678a11.785 11.785 0 0 1-5.616 1.568c-.943.021-1.718.106-1.718.17 0 .211 2.556 1.398 4.044 1.864 4.463 1.377 9.765.784 13.746-1.568 2.829-1.673 5.658-5 6.978-8.22.712-1.716 1.425-4.851 1.425-6.355 0-.975.062-1.102 1.236-2.267.691-.678 1.341-1.42 1.467-1.631.21-.403.188-.403-.88-.043-1.781.636-2.033.551-1.153-.402.65-.678 1.425-1.907 1.425-2.267 0-.063-.314.042-.67.233-.378.212-1.216.53-1.844.72l-1.132.36-1.027-.699c-.565-.38-1.362-.805-1.78-.932-1.07-.296-2.704-.254-3.668.085z" fill-rule="evenodd"/></svg>
